X: 190
T: Pie Baicai
%%abc-version 2.0
%%abcx-abcm2ps-target-version 5.9.1 (29 Sep 2008)
%%abc-creator hum2abc beta
%%abcx-conversion-date 2013/10/02 07:52:29
%%abc-edited-by Helmut Schaffrath
%%humdrum-veritas 4013778429
%%humdrum-veritas-data 3542407219
%%continueall 1
%%barnumbers 0
L: 1/8
M: 2/4
K: E
f c f c [I:setbarnb 1]| 
B c/ e/B2 | 
e G B c/ B/ | 
E F c B | 
B> e c B | 
e> GF2 | 
B E/ G/ F/ G/ F/ C/ | 
B,4 |]  



